X:1
T:Title
%%score { ( 1 3 ) | ( 2 4 ) }
L:1/8
Q:1/4=86
M:4/4
K:D
V:1 treble nm="Grand Piano"
V:3 treble 
V:2 bass 
V:4 bass 
V:1
 F>E DE FBAF | D2 E>E F4 | F>E DE FBA[Fd] | [CE]2 [DF]>[D^G] [CA]4 | %4
w: Carey~Boggess * * * * * * *||||
 [Fd]>[Fc] [B,FB][DA] [DGB][DBd][DFB][^A,F] | [Fd]>[Fc] [FB]A B[Bd]AF | D>[CE] GF EBAG | %7
w: |||
 F2 [CE]>[CE] D4 | z4 A4 | [GA]4 [GA]4 | [Fd]>[Fc] [Gc][GB] BABA | A2 ^G>G [CA]4 | z4 [FA]4 | %13
w: ||||||
 [GA]4 [GA]4 | [Fd]>[Fc] [Gc][GB] BAAG | F2 [CE]>[CE] D4 |] %16
w: |||
V:2
 [D,A,D]>[D,G,C] [D,F,][D,G,D] [D,A,D][D,G,D][D,F,D][D,D] | [B,,F,]2 [G,B,]>[G,B,] [F,^A,C]4 | %2
 [D,A,D]>[D,G,C] [D,F,][D,G,D] [D,A,D][D,G,D][D,F,D][B,,B,] | [E,A,]2 [D,A,]>[B,,E,] [A,,E,]4 | %4
 [B,,B,]>[C,^A,] D,F, G,G,F,D, | %5
 [B,,B,]>[C,^A,] [D,B,][F,D][K:treble] [G,DG][G,D][K:bass][F,DF][D,A,] | %6
 [B,,F,]>[A,,G,] [D,B,D][D,A,D] [G,B,D][E,G,D][F,A,D][G,B,E] | [A,D]2 [A,,G,]>[A,,G,] [D,F,]4 | %8
 [D,D]2 [D,D]>[D,D] [D,D]2 D,2 | A,2 A,>A, A,2 A,2 | %10
 [D,A,]>[D,A,] [E,A,][E,C] [F,D][F,=CD][G,B,D][F,C^D] | [E,CE]2 [E,DE]>[E,DE] z2 G2 | %12
 [D,D]2 [D,D]>[D,D] [D,D]2 D,2 | A,2 A,>A, A,2 A,2 | %14
 [D,A,]>[D,A,] [E,A,][E,C] [F,D][F,=CD][G,B,D][G,B,D] | [A,D]2 [A,,G,]>[A,,G,] [D,F,]4 |] %16
V:3
 x8 | x8 | x8 | x8 | x8 | x8 | x8 | x8 | [FA]3- [FA]/[GB]/ z2 D2 | C2 C>[CGB] C2 C2 | x8 | %11
 z4 E2 z2 | [FA]3- [FA]/[GB]/ z2 D2 | C2 C>[CGB] C2 C2 | x8 | x8 |] %16
V:4
 x8 | x8 | x8 | x8 | x8 | x4[K:treble] x2[K:bass] x2 | x8 | x8 | x8 | x8 | x8 | z4 A,,4 | x8 | x8 | %14
 x8 | x8 |] %16

